X: 2
T: Stoney Steps
R: reel
M: 4/4
L: 1/8
K: Dmaj
~A3B AF~f2|ABdf edBA|FA~A2 BF~F2|EFGE FDD2|~A3B AF~f2|a2df fdBA|FA~A2 BF~f2|efge fddf||fedc defa|~a2ba afeg|fded fded|B/c/dAG FDDf|fedc defa|afbf afeg|~f4 ~e4|dfaf edBF||


Tune 571	Setting 13550

